src/assets/cakepay.svg

<svg xmlns="http://www.w3.org/2000/svg" width="162.24" height="40" fill="none" viewBox="0 0 1000 300"><path fill="var(--color-darkfondant)" d="m955.135 191.317 26.442-70.777h18.18l-41.4 102.78q-4.14 10.44-10.62 16.02-6.3 5.58-18.54 5.58h-11.16V229.8h10.62q6.12 0 9.36-2.7t5.04-8.1l3.24-8.64-36.18-89.82h18.9zM380 78.42q14.94 0 27.18 6.3 12.42 6.3 20.88 18l-12.6 12.6q-6.3-9.9-15.48-15.12-9-5.22-20.16-5.22-12.6 0-22.5 6.66-9.72 6.48-15.3 17.82t-5.58 26.28q0 14.58 5.58 26.1 5.58 11.34 15.3 18 9.9 6.48 22.5 6.48 11.16 0 20.34-5.22 9.18-5.4 15.3-15.121l12.6 12.601q-8.1 11.34-21.24 17.82-12.96 6.48-27.18 6.48-13.5 0-25.02-5.04-11.34-5.04-19.8-14.04-8.46-9.18-13.14-21.42T317 145.74q0-14.58 4.68-26.82 4.86-12.24 13.32-21.24 8.46-9.18 19.98-14.22T380 78.42m92.467 39.24q11.88 0 20.519 4.5 8.82 4.5 13.681 12.779 4.86 8.1 4.859 19.261V210h-16.38v-11.688q-4.316 6.06-10.979 9.888-8.28 4.68-19.261 4.68-9.54 0-16.92-3.6-7.2-3.78-11.34-10.26t-4.139-14.76q0-13.86 10.62-21.6 10.8-7.92 28.979-7.92h22.5q0-10.44-6.299-16.38-6.3-6.12-17.281-6.12-14.4 0-25.2 11.88l-10.439-11.16q15.66-15.3 37.08-15.3m177.172 0q12.24 0 21.599 6.12 9.36 5.94 14.58 16.56 5.4 10.62 5.401 24.3v6.48h-66.963q.746 6.159 3.062 11.16 3.6 7.2 10.08 11.52 6.66 4.14 15.84 4.139 8.1 0 14.58-3.599t11.521-10.62l10.62 11.34q-7.02 9-16.74 13.5-9.54 4.32-20.88 4.32-14.04 0-24.66-6.12-10.44-6.12-16.38-16.92t-5.941-24.48q0-13.68 5.761-24.48 5.94-10.8 15.84-16.92 10.08-6.3 22.68-6.3m218.3 0q11.88 0 20.52 4.5 8.82 4.5 13.681 12.779 4.86 8.1 4.859 19.261V210h-16.38v-11.688q-4.318 6.06-10.979 9.888-8.28 4.68-19.261 4.68-9.54 0-16.92-3.6-7.2-3.78-11.34-10.26t-4.14-14.76q.001-13.86 10.621-21.6 10.8-7.92 28.979-7.92h22.5q0-10.44-6.3-16.38-6.3-6.12-17.28-6.12-14.4 0-25.2 11.88l-10.44-11.16q15.66-15.3 37.08-15.3m-322.251 42.983 39.599-40.103h22.5l-43.598 43.079L612.827 210h-24.12l-43.019-41.884V210h-18V80.4h18zM785.131 81.3q12.42 0 21.78 4.68t14.58 13.14 5.22 19.62q0 11.34-5.22 19.8-5.22 8.28-14.58 13.14-9.36 4.68-21.78 4.68H755.61V210h-18.539V81.3zm-311.404 86.22q-10.8 0-16.92 4.32-5.94 4.14-5.941 11.7 0 6.84 4.681 11.16 4.86 4.14 12.96 4.14 7.74 0 13.859-3.42 6.12-3.42 9.901-9.36a27 27 0 0 0 2.339-4.613V167.52zm395.472 0q-10.8 0-16.92 4.32-5.94 4.14-5.94 11.7 0 6.84 4.681 11.16 4.86 4.14 12.959 4.14 7.74 0 13.86-3.42t9.9-9.36a26.7 26.7 0 0 0 2.34-4.613V167.52zm-219.74-34.92q-7.56 0-13.32 3.96t-9 11.34q-2.047 4.664-2.8 10.26h48.775q-1.07-10.408-6.195-17.1-6.3-8.46-17.46-8.46m106.151 7.74h29.521q10.62 0 16.74-5.76t6.12-15.84-6.12-15.66q-6.12-5.76-16.74-5.76H755.61z" style="fill:#fff"/><g clip-path="url(#a)"><g filter="url(#b)"><path fill="url(#c)" d="M81.53 253v4.91c0 10.97-13.26 16.45-20.95 8.68L9.67 215.68a32.78 32.78 0 0 1-9.59-23.17C.08 158.95 0 117.2 0 87.24c0-10.89 13.26-16.37 20.95-8.59l1.15 1.15v96.92c0 10.89 4.26 21.2 11.95 28.9l22.51 22.51 24.97 24.88z"/></g><g filter="url(#d)"><path fill="url(#e)" d="m218.8 17.91-89.96 95.85c-5.73 6.06-8.84 14.08-8.84 22.43v105.92c0 10.97 13.26 16.45 20.96 8.68l89.47-89.47a32.78 32.78 0 0 0 9.58-23.17V26.26c0-11.13-13.59-16.45-21.2-8.35z"/></g><path fill="url(#f)" d="m156.02 147-19.81 21.12c-1.23 1.31-1.96 3.11-1.96 4.91v23.33c0 2.37 2.95 3.6 4.58 1.88l19.73-19.73c1.39-1.39 2.13-3.19 2.13-5.08v-24.64c0-2.46-3.03-3.6-4.66-1.8z"/><path fill="#fb600d" d="M102.15 113.77 62.37 73.99 51.16 62.77c-7.61-7.78-20.87-2.29-20.87 8.68v105.27c0 8.68 3.44 17.03 9.58 23.16l11.3 11.3 11.21 11.21 28.4 28.41c7.69 7.7 20.96 2.29 20.96-8.68V136.85c0-8.68-3.44-16.95-9.58-23.08z"/><path fill="url(#g)" d="M102.15 113.77 62.37 73.99 51.16 62.77c-7.61-7.78-20.87-2.29-20.87 8.68v105.27c0 8.68 3.44 17.03 9.58 23.16l11.3 11.3 11.21 11.21 28.4 28.41c7.69 7.7 20.96 2.29 20.96-8.68V136.85c0-8.68-3.44-16.95-9.58-23.08z"/><path fill="url(#h)" d="M51.15 62.77v148.4l11.21 11.21V73.98z"/><g filter="url(#i)"><path fill="url(#j)" fill-opacity=".01" d="M102.15 113.77 62.37 73.99 51.16 62.77c-7.61-7.78-20.87-2.29-20.87 8.68v105.27c0 8.68 3.44 17.03 9.58 23.16l11.3 11.3 11.21 11.21 28.4 28.41c7.69 7.7 20.96 2.29 20.96-8.68V136.85c0-8.68-3.44-16.95-9.58-23.08z"/></g></g><defs><linearGradient id="c" x1="-9.004" x2="39.694" y1="142.084" y2="189.387" gradientUnits="userSpaceOnUse"><stop stop-color="#ffc414"/><stop offset="1" stop-color="#ffb247"/></linearGradient><linearGradient id="e" x1="178.05" x2="182.88" y1="14.03" y2="311.87" gradientUnits="userSpaceOnUse"><stop stop-color="#61c5ff"/><stop offset=".92" stop-color="#2a92fa"/></linearGradient><linearGradient id="f" x1="165.41" x2="139.21" y1="153.32" y2="182.38" gradientUnits="userSpaceOnUse"><stop stop-color="#c9ebff"/><stop offset="1" stop-color="#a3ddff"/></linearGradient><linearGradient id="g" x1="-.785" x2="104.864" y1="67.19" y2="241.047" gradientUnits="userSpaceOnUse"><stop stop-color="#ff7d38"/><stop offset=".613" stop-color="#fe6412"/><stop offset="1" stop-color="#f25400"/></linearGradient><linearGradient id="h" x1="55.81" x2="57.44" y1="41.81" y2="214.52" gradientUnits="userSpaceOnUse"><stop stop-color="#ff8847" stop-opacity="0"/><stop offset="1" stop-color="#ffa06d"/></linearGradient><linearGradient id="j" x1="-.785" x2="104.864" y1="67.19" y2="241.047" gradientUnits="userSpaceOnUse"><stop stop-color="#ff7d38"/><stop offset=".613" stop-color="#fe6412"/><stop offset="1" stop-color="#f25400"/></linearGradient><filter id="b" width="81.53" height="195.237" x="0" y="74.997" color-interpolation-filters="sRGB" filterUnits="userSpaceOnUse"><feFlood flood-opacity="0" result="BackgroundImageFix"/><feBlend in="SourceGraphic" in2="BackgroundImageFix" result="shape"/><feColorMatrix in="SourceAlpha" result="hardAlpha" values="0 0 0 0 0 0 0 0 0 0 0 0 0 0 0 0 0 0 127 0"/><feOffset dy="-4"/><feComposite in2="hardAlpha" k2="-1" k3="1" operator="arithmetic"/><feColorMatrix values="0 0 0 0 0.894231 0 0 0 0 0.520015 0 0 0 0 0 0 0 0 1 0"/><feBlend in2="shape" result="effect1_innerShadow_2122_420"/><feColorMatrix in="SourceAlpha" result="hardAlpha" values="0 0 0 0 0 0 0 0 0 0 0 0 0 0 0 0 0 0 127 0"/><feOffset dy="4"/><feComposite in2="hardAlpha" k2="-1" k3="1" operator="arithmetic"/><feColorMatrix values="0 0 0 0 1 0 0 0 0 0.845086 0 0 0 0 0.375 0 0 0 1 0"/><feBlend in2="effect1_innerShadow_2122_420" result="effect2_innerShadow_2122_420"/></filter><filter id="d" width="120.01" height="240.432" x="120" y="14.002" color-interpolation-filters="sRGB" filterUnits="userSpaceOnUse"><feFlood flood-opacity="0" result="BackgroundImageFix"/><feBlend in="SourceGraphic" in2="BackgroundImageFix" result="shape"/><feColorMatrix in="SourceAlpha" result="hardAlpha" values="0 0 0 0 0 0 0 0 0 0 0 0 0 0 0 0 0 0 127 0"/><feOffset dx="-2.456" dy="-2.456"/><feComposite in2="hardAlpha" k2="-1" k3="1" operator="arithmetic"/><feColorMatrix values="0 0 0 0 0.105972 0 0 0 0 0.521264 0 0 0 0 0.908333 0 0 0 1 0"/><feBlend in2="shape" result="effect1_innerShadow_2122_420"/><feColorMatrix in="SourceAlpha" result="hardAlpha" values="0 0 0 0 0 0 0 0 0 0 0 0 0 0 0 0 0 0 127 0"/><feOffset dx="2.456" dy="2.456"/><feComposite in2="hardAlpha" k2="-1" k3="1" operator="arithmetic"/><feColorMatrix values="0 0 0 0 0.441667 0 0 0 0 0.771442 0 0 0 0 1 0 0 0 1 0"/><feBlend in2="effect1_innerShadow_2122_420" result="effect2_innerShadow_2122_420"/></filter><filter id="i" width="81.45" height="195.29" x="30.29" y="59.122" color-interpolation-filters="sRGB" filterUnits="userSpaceOnUse"><feFlood flood-opacity="0" result="BackgroundImageFix"/><feBlend in="SourceGraphic" in2="BackgroundImageFix" result="shape"/><feColorMatrix in="SourceAlpha" result="hardAlpha" values="0 0 0 0 0 0 0 0 0 0 0 0 0 0 0 0 0 0 127 0"/><feOffset dy="-4"/><feComposite in2="hardAlpha" k2="-1" k3="1" operator="arithmetic"/><feColorMatrix values="0 0 0 0 0.75 0 0 0 0 0.261411 0 0 0 0 0 0 0 0 1 0"/><feBlend in2="shape" result="effect1_innerShadow_2122_420"/><feColorMatrix in="SourceAlpha" result="hardAlpha" values="0 0 0 0 0 0 0 0 0 0 0 0 0 0 0 0 0 0 127 0"/><feOffset dy="4"/><feComposite in2="hardAlpha" k2="-1" k3="1" operator="arithmetic"/><feColorMatrix values="0 0 0 0 1 0 0 0 0 0.609109 0 0 0 0 0.399038 0 0 0 1 0"/><feBlend in2="effect1_innerShadow_2122_420" result="effect2_innerShadow_2122_420"/></filter><clipPath id="a"><path fill="#fff" d="M0 14h240v256.23H0z"/></clipPath></defs></svg>

<?xml version="1.0" encoding="UTF-8" standalone="no"?>
<svg
   width="162.24"
   height="40"
   viewBox="0 0 1000 300"
   fill="none"
   version="1.1"
   id="svg33"
   sodipodi:docname="cakepay.svg"
   inkscape:version="1.4.2 (2aeb623e1d, 2025-05-12)"
   xmlns:inkscape="http://www.inkscape.org/namespaces/inkscape"
   xmlns:sodipodi="http://sodipodi.sourceforge.net/DTD/sodipodi-0.dtd"
   xmlns="http://www.w3.org/2000/svg"
   xmlns:svg="http://www.w3.org/2000/svg">
  <sodipodi:namedview
     id="namedview33"
     pagecolor="#ffffff"
     bordercolor="#000000"
     borderopacity="0.25"
     inkscape:showpageshadow="2"
     inkscape:pageopacity="0.0"
     inkscape:pagecheckerboard="0"
     inkscape:deskcolor="#d1d1d1"
     inkscape:zoom="5.6505792"
     inkscape:cx="21.325247"
     inkscape:cy="52.295524"
     inkscape:window-width="3774"
     inkscape:window-height="2083"
     inkscape:window-x="0"
     inkscape:window-y="0"
     inkscape:window-maximized="1"
     inkscape:current-layer="svg33" />
  <path
     d="M955.135 191.317L981.577 120.54H999.757L958.357 223.32C955.597 230.28 952.057 235.62 947.737 239.34C943.537 243.06 937.357 244.92 929.197 244.92H918.037V229.8H928.657C932.737 229.8 935.857 228.9 938.017 227.1C940.177 225.3 941.857 222.6 943.057 219L946.297 210.36L910.117 120.54H929.017L955.135 191.317ZM380 78.4199C389.96 78.4199 399.02 80.5198 407.18 84.7197C415.46 88.9197 422.42 94.9199 428.06 102.72L415.46 115.32C411.26 108.72 406.1 103.68 399.98 100.2C393.981 96.7202 387.26 94.9795 379.82 94.9795C371.42 94.9795 363.92 97.1998 357.32 101.64C350.84 105.96 345.74 111.9 342.02 119.46C338.3 127.02 336.44 135.78 336.44 145.74C336.44 155.46 338.3 164.16 342.02 171.84C345.74 179.4 350.84 185.4 357.32 189.84C363.92 194.16 371.42 196.32 379.82 196.32C387.26 196.32 394.04 194.58 400.16 191.1C406.28 187.5 411.38 182.459 415.46 175.979L428.06 188.58C422.66 196.14 415.58 202.08 406.82 206.4C398.18 210.72 389.12 212.88 379.64 212.88C370.64 212.88 362.3 211.2 354.62 207.84C347.06 204.48 340.46 199.8 334.82 193.8C329.18 187.68 324.8 180.54 321.68 172.38C318.56 164.22 317 155.34 317 145.74C317 136.02 318.56 127.08 321.68 118.92C324.92 110.76 329.36 103.68 335 97.6797C340.64 91.5597 347.301 86.8199 354.98 83.46C362.66 80.1001 371 78.4199 380 78.4199ZM472.467 117.66C480.387 117.66 487.226 119.16 492.986 122.16C498.866 125.16 503.427 129.42 506.667 134.939C509.907 140.339 511.526 146.76 511.526 154.2V210H495.146V198.312C492.268 202.352 488.609 205.649 484.167 208.2C478.647 211.32 472.226 212.88 464.906 212.88C458.546 212.88 452.906 211.68 447.986 209.28C443.186 206.76 439.406 203.34 436.646 199.02C433.887 194.7 432.507 189.78 432.507 184.26C432.507 175.02 436.047 167.82 443.127 162.66C450.327 157.38 459.987 154.74 472.106 154.74H494.606C494.606 147.78 492.506 142.32 488.307 138.36C484.107 134.28 478.346 132.24 471.026 132.24C461.426 132.24 453.026 136.2 445.826 144.12L435.387 132.96C445.827 122.76 458.187 117.66 472.467 117.66ZM649.639 117.66C657.799 117.66 664.998 119.7 671.238 123.78C677.478 127.74 682.338 133.26 685.818 140.34C689.418 147.42 691.219 155.52 691.219 164.64V171.12H624.256C624.754 175.226 625.773 178.946 627.318 182.28C629.718 187.08 633.079 190.92 637.398 193.8C641.838 196.56 647.118 197.939 653.238 197.939C658.638 197.939 663.498 196.74 667.818 194.34C672.138 191.94 675.979 188.4 679.339 183.72L689.959 195.06C685.279 201.06 679.699 205.56 673.219 208.56C666.859 211.44 659.899 212.88 652.339 212.88C642.979 212.88 634.759 210.84 627.679 206.76C620.719 202.68 615.259 197.04 611.299 189.84C607.339 182.64 605.358 174.48 605.358 165.36C605.358 156.24 607.279 148.08 611.119 140.88C615.079 133.68 620.359 128.04 626.959 123.96C633.679 119.76 641.239 117.66 649.639 117.66ZM867.939 117.66C875.859 117.66 882.699 119.16 888.459 122.16C894.339 125.16 898.9 129.42 902.14 134.939C905.38 140.339 906.999 146.76 906.999 154.2V210H890.619V198.312C887.74 202.352 884.081 205.649 879.64 208.2C874.12 211.32 867.699 212.88 860.379 212.88C854.019 212.88 848.379 211.68 843.459 209.28C838.659 206.76 834.879 203.34 832.119 199.02C829.359 194.7 827.979 189.78 827.979 184.26C827.98 175.02 831.52 167.82 838.6 162.66C845.8 157.38 855.459 154.74 867.579 154.74H890.079C890.079 147.78 887.979 142.32 883.779 138.36C879.579 134.28 873.819 132.24 866.499 132.24C856.899 132.24 848.499 136.2 841.299 144.12L830.859 132.96C841.299 122.76 853.659 117.66 867.939 117.66ZM545.688 160.643L585.287 120.54H607.787L564.189 163.619L612.827 210H588.707L545.688 168.116V210H527.688V80.4004H545.688V160.643ZM785.131 81.2998C793.411 81.2998 800.671 82.8595 806.911 85.9795C813.151 89.0995 818.011 93.4801 821.491 99.1201C824.971 104.76 826.711 111.3 826.711 118.74C826.711 126.3 824.971 132.9 821.491 138.54C818.011 144.06 813.151 148.44 806.911 151.68C800.671 154.8 793.411 156.36 785.131 156.36H755.61V210H737.071V81.2998H785.131ZM473.727 167.52C466.527 167.52 460.887 168.96 456.807 171.84C452.847 174.6 450.866 178.5 450.866 183.54C450.866 188.1 452.427 191.82 455.547 194.7C458.787 197.46 463.107 198.84 468.507 198.84C473.667 198.84 478.286 197.7 482.366 195.42C486.446 193.14 489.747 190.02 492.267 186.06C493.193 184.603 493.972 183.066 494.606 181.447V167.52H473.727ZM869.199 167.52C861.999 167.52 856.359 168.96 852.279 171.84C848.319 174.6 846.339 178.5 846.339 183.54C846.339 188.1 847.9 191.82 851.02 194.7C854.26 197.46 858.58 198.84 863.979 198.84C869.139 198.84 873.759 197.7 877.839 195.42C881.919 193.14 885.219 190.02 887.739 186.06C888.666 184.603 889.445 183.066 890.079 181.447V167.52H869.199ZM649.459 132.6C644.419 132.6 639.979 133.92 636.139 136.56C632.299 139.2 629.299 142.98 627.139 147.9C625.774 151.009 624.841 154.429 624.339 158.16H673.114C672.4 151.221 670.336 145.521 666.919 141.06C662.719 135.42 656.899 132.6 649.459 132.6ZM755.61 140.34H785.131C792.211 140.34 797.791 138.42 801.871 134.58C805.951 130.74 807.991 125.46 807.991 118.74C807.991 112.02 805.951 106.8 801.871 103.08C797.791 99.2401 792.211 97.3203 785.131 97.3203H755.61V140.34Z"
     fill="var(--color-darkFondant)"
     id="path1"
     style="fill:#ffffff" />
  <g
     clip-path="url(#clip0_2122_420)"
     id="g9">
    <g
       filter="url(#filter0_ii_2122_420)"
       id="g2">
      <path
         d="M81.53 253V257.91C81.53 268.88 68.27 274.36 60.58 266.59L9.67 215.68C3.52 209.53 0.08 201.18 0.08 192.51C0.08 158.95 0 117.2 0 87.24C0 76.35 13.26 70.87 20.95 78.65L22.1 79.8V176.72C22.1 187.61 26.36 197.92 34.05 205.62L56.56 228.13L81.53 253.01V253Z"
         fill="url(#paint0_linear_2122_420)"
         id="path2" />
    </g>
    <g
       filter="url(#filter1_ii_2122_420)"
       id="g3">
      <path
         d="M218.8 17.91L128.84 113.76C123.11 119.82 120 127.84 120 136.19V242.11C120 253.08 133.26 258.56 140.96 250.79L230.43 161.32C236.57 155.18 240.01 146.83 240.01 138.15V26.26C240.01 15.13 226.42 9.81 218.81 17.91H218.8Z"
         fill="url(#paint1_linear_2122_420)"
         id="path3" />
    </g>
    <path
       d="M156.02 147L136.21 168.12C134.98 169.43 134.25 171.23 134.25 173.03V196.36C134.25 198.73 137.2 199.96 138.83 198.24L158.56 178.51C159.95 177.12 160.69 175.32 160.69 173.43V148.79C160.69 146.33 157.66 145.19 156.03 146.99L156.02 147Z"
       fill="url(#paint2_linear_2122_420)"
       id="path4" />
    <path
       d="M102.15 113.77L62.37 73.9901L51.16 62.7701C43.55 54.9901 30.29 60.4801 30.29 71.4501V176.72C30.29 185.4 33.73 193.75 39.87 199.88L51.17 211.18L62.38 222.39L90.78 250.8C98.47 258.5 111.74 253.09 111.74 242.12V136.85C111.74 128.17 108.3 119.9 102.16 113.77H102.15Z"
       fill="#FB600D"
       id="path5" />
    <path
       d="M102.15 113.77L62.37 73.9901L51.16 62.7701C43.55 54.9901 30.29 60.4801 30.29 71.4501V176.72C30.29 185.4 33.73 193.75 39.87 199.88L51.17 211.18L62.38 222.39L90.78 250.8C98.47 258.5 111.74 253.09 111.74 242.12V136.85C111.74 128.17 108.3 119.9 102.16 113.77H102.15Z"
       fill="url(#paint3_linear_2122_420)"
       id="path6" />
    <path
       d="M51.15 62.77V211.17L62.36 222.38V73.98L51.15 62.77Z"
       fill="url(#paint4_linear_2122_420)"
       id="path7" />
    <g
       filter="url(#filter2_ii_2122_420)"
       id="g8">
      <path
         d="M102.15 113.77L62.37 73.9901L51.16 62.7701C43.55 54.9901 30.29 60.4801 30.29 71.4501V176.72C30.29 185.4 33.73 193.75 39.87 199.88L51.17 211.18L62.38 222.39L90.78 250.8C98.47 258.5 111.74 253.09 111.74 242.12V136.85C111.74 128.17 108.3 119.9 102.16 113.77H102.15Z"
         fill="url(#paint5_linear_2122_420)"
         fill-opacity="0.01"
         id="path8" />
    </g>
  </g>
  <defs
     id="defs33">
    <filter
       id="filter0_ii_2122_420"
       x="0"
       y="74.9968"
       width="81.53"
       height="195.237"
       filterUnits="userSpaceOnUse"
       color-interpolation-filters="sRGB">
      <feFlood
         flood-opacity="0"
         result="BackgroundImageFix"
         id="feFlood9" />
      <feBlend
         mode="normal"
         in="SourceGraphic"
         in2="BackgroundImageFix"
         result="shape"
         id="feBlend9" />
      <feColorMatrix
         in="SourceAlpha"
         type="matrix"
         values="0 0 0 0 0 0 0 0 0 0 0 0 0 0 0 0 0 0 127 0"
         result="hardAlpha"
         id="feColorMatrix9" />
      <feOffset
         dy="-4"
         id="feOffset9" />
      <feComposite
         in2="hardAlpha"
         operator="arithmetic"
         k2="-1"
         k3="1"
         id="feComposite9" />
      <feColorMatrix
         type="matrix"
         values="0 0 0 0 0.894231 0 0 0 0 0.520015 0 0 0 0 0 0 0 0 1 0"
         id="feColorMatrix10" />
      <feBlend
         mode="normal"
         in2="shape"
         result="effect1_innerShadow_2122_420"
         id="feBlend10" />
      <feColorMatrix
         in="SourceAlpha"
         type="matrix"
         values="0 0 0 0 0 0 0 0 0 0 0 0 0 0 0 0 0 0 127 0"
         result="hardAlpha"
         id="feColorMatrix11" />
      <feOffset
         dy="4"
         id="feOffset11" />
      <feComposite
         in2="hardAlpha"
         operator="arithmetic"
         k2="-1"
         k3="1"
         id="feComposite11" />
      <feColorMatrix
         type="matrix"
         values="0 0 0 0 1 0 0 0 0 0.845086 0 0 0 0 0.375 0 0 0 1 0"
         id="feColorMatrix12" />
      <feBlend
         mode="normal"
         in2="effect1_innerShadow_2122_420"
         result="effect2_innerShadow_2122_420"
         id="feBlend12" />
    </filter>
    <filter
       id="filter1_ii_2122_420"
       x="120"
       y="14.0015"
       width="120.01"
       height="240.432"
       filterUnits="userSpaceOnUse"
       color-interpolation-filters="sRGB">
      <feFlood
         flood-opacity="0"
         result="BackgroundImageFix"
         id="feFlood12" />
      <feBlend
         mode="normal"
         in="SourceGraphic"
         in2="BackgroundImageFix"
         result="shape"
         id="feBlend13" />
      <feColorMatrix
         in="SourceAlpha"
         type="matrix"
         values="0 0 0 0 0 0 0 0 0 0 0 0 0 0 0 0 0 0 127 0"
         result="hardAlpha"
         id="feColorMatrix13" />
      <feOffset
         dx="-2.45567"
         dy="-2.45567"
         id="feOffset13" />
      <feComposite
         in2="hardAlpha"
         operator="arithmetic"
         k2="-1"
         k3="1"
         id="feComposite13" />
      <feColorMatrix
         type="matrix"
         values="0 0 0 0 0.105972 0 0 0 0 0.521264 0 0 0 0 0.908333 0 0 0 1 0"
         id="feColorMatrix14" />
      <feBlend
         mode="normal"
         in2="shape"
         result="effect1_innerShadow_2122_420"
         id="feBlend14" />
      <feColorMatrix
         in="SourceAlpha"
         type="matrix"
         values="0 0 0 0 0 0 0 0 0 0 0 0 0 0 0 0 0 0 127 0"
         result="hardAlpha"
         id="feColorMatrix15" />
      <feOffset
         dx="2.45567"
         dy="2.45567"
         id="feOffset15" />
      <feComposite
         in2="hardAlpha"
         operator="arithmetic"
         k2="-1"
         k3="1"
         id="feComposite15" />
      <feColorMatrix
         type="matrix"
         values="0 0 0 0 0.441667 0 0 0 0 0.771442 0 0 0 0 1 0 0 0 1 0"
         id="feColorMatrix16" />
      <feBlend
         mode="normal"
         in2="effect1_innerShadow_2122_420"
         result="effect2_innerShadow_2122_420"
         id="feBlend16" />
    </filter>
    <filter
       id="filter2_ii_2122_420"
       x="30.29"
       y="59.1221"
       width="81.45"
       height="195.29"
       filterUnits="userSpaceOnUse"
       color-interpolation-filters="sRGB">
      <feFlood
         flood-opacity="0"
         result="BackgroundImageFix"
         id="feFlood16" />
      <feBlend
         mode="normal"
         in="SourceGraphic"
         in2="BackgroundImageFix"
         result="shape"
         id="feBlend17" />
      <feColorMatrix
         in="SourceAlpha"
         type="matrix"
         values="0 0 0 0 0 0 0 0 0 0 0 0 0 0 0 0 0 0 127 0"
         result="hardAlpha"
         id="feColorMatrix17" />
      <feOffset
         dy="-4"
         id="feOffset17" />
      <feComposite
         in2="hardAlpha"
         operator="arithmetic"
         k2="-1"
         k3="1"
         id="feComposite17" />
      <feColorMatrix
         type="matrix"
         values="0 0 0 0 0.75 0 0 0 0 0.261411 0 0 0 0 0 0 0 0 1 0"
         id="feColorMatrix18" />
      <feBlend
         mode="normal"
         in2="shape"
         result="effect1_innerShadow_2122_420"
         id="feBlend18" />
      <feColorMatrix
         in="SourceAlpha"
         type="matrix"
         values="0 0 0 0 0 0 0 0 0 0 0 0 0 0 0 0 0 0 127 0"
         result="hardAlpha"
         id="feColorMatrix19" />
      <feOffset
         dy="4"
         id="feOffset19" />
      <feComposite
         in2="hardAlpha"
         operator="arithmetic"
         k2="-1"
         k3="1"
         id="feComposite19" />
      <feColorMatrix
         type="matrix"
         values="0 0 0 0 1 0 0 0 0 0.609109 0 0 0 0 0.399038 0 0 0 1 0"
         id="feColorMatrix20" />
      <feBlend
         mode="normal"
         in2="effect1_innerShadow_2122_420"
         result="effect2_innerShadow_2122_420"
         id="feBlend20" />
    </filter>
    <linearGradient
       id="paint0_linear_2122_420"
       x1="-9.00432"
       y1="142.084"
       x2="39.6937"
       y2="189.387"
       gradientUnits="userSpaceOnUse">
      <stop
         stop-color="#FFC414"
         id="stop20" />
      <stop
         offset="1"
         stop-color="#FFB247"
         id="stop21" />
    </linearGradient>
    <linearGradient
       id="paint1_linear_2122_420"
       x1="178.05"
       y1="14.03"
       x2="182.88"
       y2="311.87"
       gradientUnits="userSpaceOnUse">
      <stop
         stop-color="#61C5FF"
         id="stop22" />
      <stop
         offset="0.92"
         stop-color="#2A92FA"
         id="stop23" />
    </linearGradient>
    <linearGradient
       id="paint2_linear_2122_420"
       x1="165.41"
       y1="153.32"
       x2="139.21"
       y2="182.38"
       gradientUnits="userSpaceOnUse">
      <stop
         stop-color="#C9EBFF"
         id="stop24" />
      <stop
         offset="1"
         stop-color="#A3DDFF"
         id="stop25" />
    </linearGradient>
    <linearGradient
       id="paint3_linear_2122_420"
       x1="-0.785245"
       y1="67.1896"
       x2="104.864"
       y2="241.047"
       gradientUnits="userSpaceOnUse">
      <stop
         stop-color="#FF7D38"
         id="stop26" />
      <stop
         offset="0.612828"
         stop-color="#FE6412"
         id="stop27" />
      <stop
         offset="1"
         stop-color="#F25400"
         id="stop28" />
    </linearGradient>
    <linearGradient
       id="paint4_linear_2122_420"
       x1="55.81"
       y1="41.81"
       x2="57.44"
       y2="214.52"
       gradientUnits="userSpaceOnUse">
      <stop
         stop-color="#FF8847"
         stop-opacity="0"
         id="stop29" />
      <stop
         offset="1"
         stop-color="#FFA06D"
         id="stop30" />
    </linearGradient>
    <linearGradient
       id="paint5_linear_2122_420"
       x1="-0.785245"
       y1="67.1896"
       x2="104.864"
       y2="241.047"
       gradientUnits="userSpaceOnUse">
      <stop
         stop-color="#FF7D38"
         id="stop31" />
      <stop
         offset="0.612828"
         stop-color="#FE6412"
         id="stop32" />
      <stop
         offset="1"
         stop-color="#F25400"
         id="stop33" />
    </linearGradient>
    <clipPath
       id="clip0_2122_420">
      <rect
         width="240"
         height="256.23"
         fill="white"
         transform="translate(0 14)"
         id="rect33" />
    </clipPath>
  </defs>
</svg>
